src/assets/icons/floating.svg

<svg width="24" height="24" viewBox="0 0 24 24" fill="none" xmlns="http://www.w3.org/2000/svg">
<path d="M19 9.27778V6.55556C19 5.69645 18.3036 5 17.4444 5H6.55556C5.69645 5 5 5.69645 5 6.55556V17.4444C5 18.3036 5.69645 19 6.55556 19H9M13.6667 13H18.3333C18.7015 13 19 13.2985 19 13.6667V18.3333C19 18.7015 18.7015 19 18.3333 19H13.6667C13.2985 19 13 18.7015 13 18.3333V13.6667C13 13.2985 13.2985 13 13.6667 13Z" stroke="#314158" stroke-width="1.5" stroke-linecap="round" stroke-linejoin="round"/>
</svg>

<svg fill="none" viewBox="0 0 24 24"><path stroke="currentColor" stroke-linecap="round" stroke-linejoin="round" stroke-width="1.5" d="M19 9.278V6.556C19 5.696 18.304 5 17.444 5H6.556C5.696 5 5 5.696 5 6.556v10.888C5 18.304 5.696 19 6.556 19H9m4.667-6h4.666c.369 0 .667.299.667.667v4.666a.667.667 0 0 1-.667.667h-4.666a.667.667 0 0 1-.667-.667v-4.666c0-.368.299-.667.667-.667"/></svg>
